apps/www/public/images/product/functions/functions-v2.svg

<svg width="114" height="115" viewBox="0 0 114 115" fill="none" xmlns="http://www.w3.org/2000/svg">
<g clip-path="url(#clip0_4291_96513)">
<rect y="0.728516" width="113.52" height="113.52" rx="22.19" fill="url(#paint0_linear_4291_96513)"/>
<g filter="url(#filter0_f_4291_96513)">
<path fill-rule="evenodd" clip-rule="evenodd" d="M62.1008 93.2258C81.8013 90.5441 95.5979 72.3997 92.9162 52.6991C92.4669 49.3983 91.5835 46.2633 90.3315 43.3437C101.669 49.5655 110.013 60.8954 111.891 74.6938C115.037 97.8079 98.8503 119.096 75.7362 122.243C52.6221 125.389 31.3338 109.202 28.1875 86.0877C27.8317 83.4744 27.7232 80.8845 27.8438 78.3415C35.348 88.9369 48.345 95.0982 62.1008 93.2258Z" fill="#3DCB8C" fill-opacity="0.2"/>
</g>
<path fill-rule="evenodd" clip-rule="evenodd" d="M92.9167 52.699C95.5983 72.3996 81.8018 90.544 62.1012 93.2256C54.7232 94.23 47.5634 92.9231 41.3524 89.8605C40.5326 90.1292 39.6769 90.3278 38.7915 90.4483C35.0024 90.9641 31.3572 89.9568 28.4734 87.8962C32.455 110.04 53.2303 125.306 75.7367 122.242C98.8508 119.096 115.038 97.8078 111.892 74.6937C110.013 60.8952 101.67 49.5654 90.3319 43.3436C91.584 46.2632 92.4674 49.3982 92.9167 52.699Z" fill="url(#paint1_radial_4291_96513)" fill-opacity="0.2"/>
<g filter="url(#filter1_f_4291_96513)">
<circle cx="21.7225" cy="26.4459" r="49.0311" fill="#00F0FF" fill-opacity="0.2"/>
</g>
<g filter="url(#filter2_f_4291_96513)">
<circle cx="24.3607" cy="51.3746" r="37.2787" fill="url(#paint2_linear_4291_96513)"/>
</g>
<g filter="url(#filter3_f_4291_96513)">
<circle cx="23.2096" cy="19.932" r="24.94" fill="#3DCB8C" fill-opacity="0.2"/>
</g>
<g filter="url(#filter4_f_4291_96513)">
<path fill-rule="evenodd" clip-rule="evenodd" d="M56.5 31C41.8645 31 30 42.8645 30 57.5C30 60.7133 30.5707 63.789 31.6155 66.6343C32.9355 65.9292 34.4101 65.4756 35.9753 65.3376C35.0452 62.9033 34.5357 60.2612 34.5357 57.5C34.5357 45.3695 44.3695 35.5357 56.5 35.5357C59.4331 35.5357 62.2319 36.1106 64.7899 37.1539C64.9386 35.5888 65.4031 34.1156 66.1188 32.7988C63.1395 31.6377 59.8968 31 56.5 31ZM70.6527 28.2359C66.3714 26.1619 61.5676 25 56.5 25C38.5507 25 24 39.5507 24 57.5C24 62.3758 25.0756 67.0071 27.004 71.1636C26.0866 72.8088 25.5639 74.7041 25.5639 76.7215C25.5639 83.0333 30.6806 88.1501 36.9925 88.1501C38.9498 88.1501 40.7922 87.658 42.4027 86.7909C46.6701 88.8481 51.4544 90 56.5 90C74.4493 90 89 75.4493 89 57.5C89 52.6783 87.9481 48.0955 86.0597 43.9744C87.0362 42.2909 87.5953 40.335 87.5953 38.2487C87.5953 31.9368 82.4785 26.8201 76.1667 26.8201C74.1672 26.8201 72.2877 27.3336 70.6527 28.2359ZM81.401 48.4108C80.071 49.0973 78.5888 49.5303 77.0184 49.646C77.9525 52.0848 78.4643 54.7326 78.4643 57.5C78.4643 69.6305 68.6305 79.4643 56.5 79.4643C53.6242 79.4643 50.8775 78.9116 48.3603 77.9067C48.1995 79.4681 47.7242 80.9362 46.999 82.2468C49.9459 83.379 53.1479 84 56.5 84C71.1355 84 83 72.1355 83 57.5C83 54.3035 82.4353 51.2433 81.401 48.4108ZM40.6875 72.7445C40.7983 72.8594 40.9103 72.9731 41.0236 73.0856C41.8922 74.048 42.421 75.323 42.421 76.7215C42.421 79.7196 39.9906 82.1501 36.9925 82.1501C33.9943 82.1501 31.5639 79.7196 31.5639 76.7215C31.5639 73.7234 33.9943 71.2929 36.9925 71.2929C38.4198 71.2929 39.7185 71.8438 40.6875 72.7445ZM45.3384 68.9139C48.2168 71.7291 52.1557 73.4643 56.5 73.4643C65.3168 73.4643 72.4643 66.3168 72.4643 57.5C72.4643 48.6832 65.3168 41.5357 56.5 41.5357C47.6832 41.5357 40.5357 48.6832 40.5357 57.5C40.5357 61.7594 42.2039 65.6293 44.9225 68.4918C45.0647 68.6289 45.2034 68.7697 45.3384 68.9139ZM76.1667 32.8201C73.1686 32.8201 70.7381 35.2505 70.7381 38.2487C70.7381 41.2468 73.1686 43.6772 76.1667 43.6772C79.1648 43.6772 81.5953 41.2468 81.5953 38.2487C81.5953 35.2505 79.1648 32.8201 76.1667 32.8201Z" fill="url(#paint3_linear_4291_96513)"/>
</g>
<path d="M31.3808 66.7205C31.4057 66.7884 31.4588 66.8422 31.5264 66.8679C31.594 66.8937 31.6694 66.8889 31.7332 66.8548C33.0242 66.1652 34.4663 65.7216 35.9973 65.5866C36.0754 65.5797 36.1457 65.5366 36.1873 65.4701C36.2288 65.4037 36.2368 65.3216 36.2088 65.2484C35.2895 62.8421 34.7857 60.2302 34.7857 57.5C34.7857 45.5075 44.5075 35.7857 56.5 35.7857C59.4002 35.7857 62.167 36.3541 64.6955 37.3854C64.7687 37.4153 64.8517 37.4088 64.9194 37.3678C64.987 37.3269 65.0313 37.2563 65.0388 37.1776C65.1843 35.6467 65.6385 34.206 66.3384 32.9182C66.3727 32.8551 66.3782 32.7803 66.3536 32.7129C66.3289 32.6455 66.2764 32.5919 66.2096 32.5659C63.2018 31.3937 59.9283 30.75 56.5 30.75C41.7264 30.75 29.75 42.7264 29.75 57.5C29.75 60.7431 30.326 63.848 31.3808 66.7205ZM70.5437 28.4609C70.6167 28.4962 70.7024 28.494 70.7735 28.4547C72.3724 27.5723 74.2105 27.0701 76.1667 27.0701C82.3405 27.0701 87.3453 32.0749 87.3453 38.2487C87.3453 40.2898 86.7984 42.2025 85.8434 43.849C85.8027 43.9192 85.7986 44.0048 85.8324 44.0786C87.7062 48.1677 88.75 52.715 88.75 57.5C88.75 75.3112 74.3112 89.75 56.5 89.75C51.4928 89.75 46.7455 88.607 42.5112 86.5657C42.4391 86.5309 42.3547 86.5328 42.2842 86.5708C40.7092 87.4188 38.9074 87.9001 36.9925 87.9001C30.8187 87.9001 25.8139 82.8953 25.8139 76.7215C25.8139 74.7478 26.3252 72.8943 27.2223 71.2854C27.2613 71.2155 27.2645 71.1311 27.2308 71.0584C25.3174 66.9342 24.25 62.3387 24.25 57.5C24.25 39.6888 38.6888 25.25 56.5 25.25C61.529 25.25 66.2957 26.403 70.5437 28.4609ZM81.6359 48.325C81.6113 48.2576 81.5588 48.204 81.4919 48.1779C81.4251 48.1518 81.3502 48.1557 81.2864 48.1886C79.9856 48.86 78.5361 49.2835 77 49.3966C76.9212 49.4025 76.8497 49.4452 76.8073 49.512C76.765 49.5787 76.7567 49.6616 76.7849 49.7354C77.7083 52.1461 78.2143 54.7637 78.2143 57.5C78.2143 69.4925 68.4925 79.2143 56.5 79.2143C53.6565 79.2143 50.9412 78.6679 48.453 77.6745C48.3802 77.6454 48.298 77.6522 48.2309 77.6928C48.1638 77.7334 48.1197 77.8031 48.1116 77.8811C47.9543 79.4082 47.4896 80.844 46.7803 82.1258C46.7453 82.189 46.7394 82.2644 46.7641 82.3324C46.7889 82.4003 46.8419 82.4542 46.9094 82.4802C49.8844 83.6232 53.1167 84.25 56.5 84.25C71.2736 84.25 83.25 72.2736 83.25 57.5C83.25 54.2738 82.68 51.1847 81.6359 48.325ZM40.8674 72.571L40.8677 72.5707L40.8577 72.5614C39.8442 71.6194 38.4854 71.0429 36.9925 71.0429C33.8563 71.0429 31.3139 73.5853 31.3139 76.7215C31.3139 79.8577 33.8563 82.4001 36.9925 82.4001C40.1287 82.4001 42.671 79.8577 42.671 76.7215C42.671 75.2588 42.1176 73.9247 41.2092 72.9181L41.2095 72.9179L41.1998 72.9082C41.0878 72.797 40.977 72.6846 40.8674 72.571ZM45.1559 69.0847L45.1557 69.0849L45.1636 69.0926C48.0868 71.9516 52.0878 73.7143 56.5 73.7143C65.4549 73.7143 72.7143 66.4549 72.7143 57.5C72.7143 48.5451 65.4549 41.2857 56.5 41.2857C47.5451 41.2857 40.2857 48.5451 40.2857 57.5C40.2857 61.826 41.9802 65.7568 44.7412 68.664L44.741 68.6642L44.749 68.6718C44.8881 68.8059 45.0238 68.9436 45.1559 69.0847ZM76.1667 32.5701C73.0305 32.5701 70.4881 35.1125 70.4881 38.2487C70.4881 41.3848 73.0305 43.9272 76.1667 43.9272C79.3029 43.9272 81.8453 41.3848 81.8453 38.2487C81.8453 35.1125 79.3029 32.5701 76.1667 32.5701Z" fill="url(#paint4_linear_4291_96513)" stroke="url(#paint5_linear_4291_96513)" stroke-width="0.5" stroke-miterlimit="10" stroke-linejoin="round"/>
</g>
<rect x="0.932151" y="1.66067" width="111.655" height="111.655" rx="21.2579" stroke="url(#paint6_linear_4291_96513)" stroke-opacity="0.2" stroke-width="1.8643"/>
<defs>
<filter id="filter0_f_4291_96513" x="-0.583008" y="14.9639" width="141.244" height="136.05" filterUnits="userSpaceOnUse" color-interpolation-filters="sRGB">
<feFlood flood-opacity="0" result="BackgroundImageFix"/>
<feBlend mode="normal" in="SourceGraphic" in2="BackgroundImageFix" result="shape"/>
<feGaussianBlur stdDeviation="14.1899" result="effect1_foregroundBlur_4291_96513"/>
</filter>
<filter id="filter1_f_4291_96513" x="-55.6885" y="-50.9651" width="154.822" height="154.822" filterUnits="userSpaceOnUse" color-interpolation-filters="sRGB">
<feFlood flood-opacity="0" result="BackgroundImageFix"/>
<feBlend mode="normal" in="SourceGraphic" in2="BackgroundImageFix" result="shape"/>
<feGaussianBlur stdDeviation="14.1899" result="effect1_foregroundBlur_4291_96513"/>
</filter>
<filter id="filter2_f_4291_96513" x="-41.918" y="-14.9041" width="132.557" height="132.557" filterUnits="userSpaceOnUse" color-interpolation-filters="sRGB">
<feFlood flood-opacity="0" result="BackgroundImageFix"/>
<feBlend mode="normal" in="SourceGraphic" in2="BackgroundImageFix" result="shape"/>
<feGaussianBlur stdDeviation="14.5" result="effect1_foregroundBlur_4291_96513"/>
</filter>
<filter id="filter3_f_4291_96513" x="-30.1104" y="-33.3879" width="106.641" height="106.64" filterUnits="userSpaceOnUse" color-interpolation-filters="sRGB">
<feFlood flood-opacity="0" result="BackgroundImageFix"/>
<feBlend mode="normal" in="SourceGraphic" in2="BackgroundImageFix" result="shape"/>
<feGaussianBlur stdDeviation="14.1899" result="effect1_foregroundBlur_4291_96513"/>
</filter>
<filter id="filter4_f_4291_96513" x="20" y="21" width="73" height="73" filterUnits="userSpaceOnUse" color-interpolation-filters="sRGB">
<feFlood flood-opacity="0" result="BackgroundImageFix"/>
<feBlend mode="normal" in="SourceGraphic" in2="BackgroundImageFix" result="shape"/>
<feGaussianBlur stdDeviation="2" result="effect1_foregroundBlur_4291_96513"/>
</filter>
<linearGradient id="paint0_linear_4291_96513" x1="56.7598" y1="0.728516" x2="56.7598" y2="114.248" gradientUnits="userSpaceOnUse">
<stop/>
<stop offset="1" stop-color="#151515"/>
</linearGradient>
<radialGradient id="paint1_radial_4291_96513" cx="0" cy="0" r="1" gradientUnits="userSpaceOnUse" gradientTransform="translate(70.5967 84.4861) rotate(82.2485) scale(38.1047 42.2378)">
<stop stop-color="#3DCB8C"/>
<stop offset="1" stop-color="#3DCB8C" stop-opacity="0"/>
</radialGradient>
<linearGradient id="paint2_linear_4291_96513" x1="27.8484" y1="49.1783" x2="46.4022" y2="51.3731" gradientUnits="userSpaceOnUse">
<stop stop-color="#075B61" stop-opacity="0.65"/>
<stop offset="1" stop-color="#040404" stop-opacity="0"/>
</linearGradient>
<linearGradient id="paint3_linear_4291_96513" x1="56.5" y1="25" x2="56.5" y2="90" gradientUnits="userSpaceOnUse">
<stop stop-color="#4CC38A"/>
<stop offset="1" stop-color="#65ECF4"/>
</linearGradient>
<linearGradient id="paint4_linear_4291_96513" x1="56.5" y1="25" x2="56.5" y2="90" gradientUnits="userSpaceOnUse">
<stop stop-color="#65ECF4"/>
<stop offset="0.729167" stop-color="#0DFF8B"/>
</linearGradient>
<linearGradient id="paint5_linear_4291_96513" x1="79.5623" y1="42.3196" x2="57.7239" y2="90.4653" gradientUnits="userSpaceOnUse">
<stop stop-color="#BEFFE0"/>
<stop offset="1" stop-color="#4CC38A" stop-opacity="0"/>
</linearGradient>
<linearGradient id="paint6_linear_4291_96513" x1="56.7598" y1="0.728516" x2="56.7598" y2="114.248" gradientUnits="userSpaceOnUse">
<stop stop-color="#59FCB3"/>
<stop offset="1"/>
</linearGradient>
<clipPath id="clip0_4291_96513">
<rect y="0.728516" width="113.52" height="113.52" rx="22.19" fill="white"/>
</clipPath>
</defs>
</svg>

<svg xmlns="http://www.w3.org/2000/svg" width="114" height="115" fill="none" viewBox="0 0 114 115"><g clip-path="url(#a)"><rect width="113.52" height="113.52" y=".729" fill="url(#b)" rx="22.19"/><g filter="url(#c)"><path fill="#3dcb8c" fill-opacity=".2" fill-rule="evenodd" d="M62.1 93.226C81.802 90.544 95.599 72.4 92.917 52.699a36 36 0 0 0-2.584-9.355c11.337 6.221 19.681 17.551 21.559 31.35 3.146 23.114-13.04 44.402-36.155 47.549-23.114 3.146-44.402-13.041-47.549-36.155a42.5 42.5 0 0 1-.343-7.746C35.348 88.937 48.345 95.098 62.1 93.226" clip-rule="evenodd"/></g><path fill="url(#d)" fill-opacity=".2" fill-rule="evenodd" d="M92.917 52.699c2.681 19.7-11.115 37.845-30.816 40.527a35.83 35.83 0 0 1-20.749-3.365c-.82.268-1.675.467-2.56.587a14.36 14.36 0 0 1-10.319-2.552c3.982 22.144 24.757 37.41 47.264 34.346 23.114-3.146 39.301-24.434 36.155-47.548-1.879-13.799-10.222-25.129-21.56-31.35a36 36 0 0 1 2.585 9.355" clip-rule="evenodd"/><g filter="url(#e)"><circle cx="21.723" cy="26.446" r="49.031" fill="#00f0ff" fill-opacity=".2"/></g><g filter="url(#f)"><circle cx="24.361" cy="51.375" r="37.279" fill="url(#g)"/></g><g filter="url(#h)"><circle cx="23.21" cy="19.932" r="24.94" fill="#3dcb8c" fill-opacity=".2"/></g><g filter="url(#i)"><path fill="url(#j)" fill-rule="evenodd" d="M56.5 31C41.865 31 30 42.865 30 57.5c0 3.213.57 6.289 1.616 9.134a11.4 11.4 0 0 1 4.36-1.296 21.9 21.9 0 0 1-1.44-7.838c0-12.13 9.834-21.964 21.964-21.964 2.933 0 5.732.575 8.29 1.618a11.4 11.4 0 0 1 1.329-4.355A26.4 26.4 0 0 0 56.5 31m14.153-2.764A32.4 32.4 0 0 0 56.5 25C38.55 25 24 39.55 24 57.5c0 4.876 1.076 9.507 3.004 13.664a11.4 11.4 0 0 0-1.44 5.558c0 6.311 5.117 11.428 11.429 11.428 1.957 0 3.8-.492 5.41-1.36A32.4 32.4 0 0 0 56.5 90C74.45 90 89 75.45 89 57.5c0-4.822-1.052-9.404-2.94-13.526a11.4 11.4 0 0 0 1.535-5.725c0-6.312-5.117-11.429-11.428-11.429-2 0-3.88.514-5.514 1.416M81.4 48.41a11.4 11.4 0 0 1-4.383 1.235 21.9 21.9 0 0 1 1.446 7.854c0 12.13-9.833 21.964-21.964 21.964-2.876 0-5.623-.552-8.14-1.557A11.4 11.4 0 0 1 47 82.247 26.4 26.4 0 0 0 56.5 84C71.135 84 83 72.135 83 57.5c0-3.197-.565-6.257-1.599-9.09M40.688 72.745q.165.171.336.34a5.429 5.429 0 1 1-.336-.341m4.65-3.831a15.9 15.9 0 0 0 11.162 4.55c8.817 0 15.964-7.147 15.964-15.964S65.317 41.536 56.5 41.536 40.536 48.683 40.536 57.5c0 4.26 1.668 8.13 4.386 10.992q.214.206.416.422M76.167 32.82a5.429 5.429 0 1 0 0 10.857 5.429 5.429 0 0 0 0-10.857" clip-rule="evenodd"/></g><path fill="url(#k)" stroke="url(#l)" stroke-linejoin="round" stroke-miterlimit="10" stroke-width=".5" d="M31.38 66.72a.25.25 0 0 0 .353.135 11.1 11.1 0 0 1 4.264-1.268.25.25 0 0 0 .212-.339 21.7 21.7 0 0 1-1.423-7.748c0-11.992 9.721-21.714 21.714-21.714 2.9 0 5.667.568 8.195 1.6a.25.25 0 0 0 .344-.208c.145-1.531.6-2.972 1.3-4.26a.25.25 0 0 0-.13-.352A26.7 26.7 0 0 0 56.5 30.75c-14.774 0-26.75 11.976-26.75 26.75 0 3.243.576 6.348 1.63 9.22Zm39.164-38.26a.25.25 0 0 0 .23-.005 11.1 11.1 0 0 1 5.393-1.385c6.174 0 11.178 5.005 11.178 11.179 0 2.04-.547 3.953-1.502 5.6a.25.25 0 0 0-.01.23A32.1 32.1 0 0 1 88.75 57.5c0 17.811-14.439 32.25-32.25 32.25a32.1 32.1 0 0 1-13.989-3.184.25.25 0 0 0-.227.005 11.1 11.1 0 0 1-5.291 1.33c-6.174 0-11.18-5.006-11.18-11.18 0-1.973.512-3.827 1.41-5.436a.25.25 0 0 0 .008-.227A32.1 32.1 0 0 1 24.25 57.5c0-17.811 14.439-32.25 32.25-32.25 5.029 0 9.796 1.153 14.044 3.21Zm11.092 19.865a.25.25 0 0 0-.35-.136c-1.3.671-2.75 1.094-4.286 1.208a.25.25 0 0 0-.215.338 21.7 21.7 0 0 1 1.43 7.765c0 11.993-9.722 21.714-21.715 21.714-2.843 0-5.559-.546-8.047-1.54a.25.25 0 0 0-.341.207 11.1 11.1 0 0 1-1.332 4.245.25.25 0 0 0 .13.354 26.7 26.7 0 0 0 9.59 1.77c14.774 0 26.75-11.976 26.75-26.75 0-3.226-.57-6.315-1.614-9.175ZM40.867 72.571l-.01-.01a5.679 5.679 0 1 0 .352.357l-.01-.01a22 22 0 0 1-.332-.337Zm4.289-3.486.008.008A16.16 16.16 0 0 0 56.5 73.714c8.955 0 16.214-7.26 16.214-16.214 0-8.955-7.26-16.214-16.214-16.214-8.955 0-16.214 7.26-16.214 16.214a16.16 16.16 0 0 0 4.455 11.164l.008.008q.21.201.407.413Zm31.01-36.515a5.679 5.679 0 1 0 0 11.357 5.679 5.679 0 0 0 0-11.357Z"/></g><rect width="111.655" height="111.655" x=".932" y="1.661" stroke="url(#m)" stroke-opacity=".2" stroke-width="1.864" rx="21.258"/><defs><linearGradient id="b" x1="56.76" x2="56.76" y1=".729" y2="114.248" gradientUnits="userSpaceOnUse"><stop/><stop offset="1" stop-color="#151515"/></linearGradient><linearGradient id="g" x1="27.848" x2="46.402" y1="49.178" y2="51.373" gradientUnits="userSpaceOnUse"><stop stop-color="#075b61" stop-opacity=".65"/><stop offset="1" stop-color="#040404" stop-opacity="0"/></linearGradient><linearGradient id="j" x1="56.5" x2="56.5" y1="25" y2="90" gradientUnits="userSpaceOnUse"><stop stop-color="#4cc38a"/><stop offset="1" stop-color="#65ecf4"/></linearGradient><linearGradient id="k" x1="56.5" x2="56.5" y1="25" y2="90" gradientUnits="userSpaceOnUse"><stop stop-color="#65ecf4"/><stop offset=".729" stop-color="#0dff8b"/></linearGradient><linearGradient id="l" x1="79.562" x2="57.724" y1="42.32" y2="90.465" gradientUnits="userSpaceOnUse"><stop stop-color="#beffe0"/><stop offset="1" stop-color="#4cc38a" stop-opacity="0"/></linearGradient><linearGradient id="m" x1="56.76" x2="56.76" y1=".729" y2="114.248" gradientUnits="userSpaceOnUse"><stop stop-color="#59fcb3"/><stop offset="1"/></linearGradient><filter id="c" width="141.244" height="136.05" x="-.583" y="14.964" color-interpolation-filters="sRGB" filterUnits="userSpaceOnUse"><feFlood flood-opacity="0" result="BackgroundImageFix"/><feBlend in="SourceGraphic" in2="BackgroundImageFix" result="shape"/><feGaussianBlur result="effect1_foregroundBlur_4291_96513" stdDeviation="14.19"/></filter><filter id="e" width="154.822" height="154.822" x="-55.688" y="-50.965" color-interpolation-filters="sRGB" filterUnits="userSpaceOnUse"><feFlood flood-opacity="0" result="BackgroundImageFix"/><feBlend in="SourceGraphic" in2="BackgroundImageFix" result="shape"/><feGaussianBlur result="effect1_foregroundBlur_4291_96513" stdDeviation="14.19"/></filter><filter id="f" width="132.557" height="132.557" x="-41.918" y="-14.904" color-interpolation-filters="sRGB" filterUnits="userSpaceOnUse"><feFlood flood-opacity="0" result="BackgroundImageFix"/><feBlend in="SourceGraphic" in2="BackgroundImageFix" result="shape"/><feGaussianBlur result="effect1_foregroundBlur_4291_96513" stdDeviation="14.5"/></filter><filter id="h" width="106.641" height="106.64" x="-30.11" y="-33.388" color-interpolation-filters="sRGB" filterUnits="userSpaceOnUse"><feFlood flood-opacity="0" result="BackgroundImageFix"/><feBlend in="SourceGraphic" in2="BackgroundImageFix" result="shape"/><feGaussianBlur result="effect1_foregroundBlur_4291_96513" stdDeviation="14.19"/></filter><filter id="i" width="73" height="73" x="20" y="21" color-interpolation-filters="sRGB" filterUnits="userSpaceOnUse"><feFlood flood-opacity="0" result="BackgroundImageFix"/><feBlend in="SourceGraphic" in2="BackgroundImageFix" result="shape"/><feGaussianBlur result="effect1_foregroundBlur_4291_96513" stdDeviation="2"/></filter><radialGradient id="d" cx="0" cy="0" r="1" gradientTransform="rotate(82.249 -13.084 82.672)scale(38.1047 42.2378)" gradientUnits="userSpaceOnUse"><stop stop-color="#3dcb8c"/><stop offset="1" stop-color="#3dcb8c" stop-opacity="0"/></radialGradient><clipPath id="a"><rect width="113.52" height="113.52" y=".729" fill="#fff" rx="22.19"/></clipPath></defs></svg>
